images/icons/art.svg

<svg width="460px" height="460px" viewBox="0 0 460 460" version="1.1" xmlns="http://www.w3.org/2000/svg" xmlns:xlink="http://www.w3.org/1999/xlink">
    <g stroke="none" stroke-width="1" fill="none" fill-rule="evenodd">
        <rect fill="#033671" x="0" y="238.778626" width="460" height="221.221374"></rect>
        <rect fill="#F8E81C" x="0" y="0" width="460" height="238.778626"></rect>
        <path d="M195.470738,420.340598 L195.470738,460 L221.221374,460 L221.22335,348.804071 C221.222033,348.609146 221.221374,348.414065 221.221374,348.21883 C221.221374,301.547152 258.898634,263.675472 305.496183,263.360754 L305.496183,237.609658 C271.647203,237.785018 241.395387,253.164525 221.221374,277.267545 L221.221374,277.267545 L221.221374,238.778626 L195.470738,238.778626 L195.470738,278.438028 C175.180528,254.196181 144.696089,238.778626 110.610687,238.778626 C49.5220914,238.778626 0,288.300717 0,349.389313 C0,410.477909 49.5220914,460 110.610687,460 C144.696089,460 175.180528,444.582445 195.470738,420.340598 L195.470738,420.340598 L195.470738,420.340598 Z M335.88989,263.358779 L335.88989,347.633588 L361.640526,347.633588 L361.640526,263.358779 L460,263.358779 L460,237.608142 L361.640526,237.608142 L361.640526,177.913486 L335.88989,177.913486 L335.88989,237.608142 L305.496183,237.608142 L305.496183,263.358779 L335.88989,263.358779 L335.88989,263.358779 Z M459.922273,458.023454 C455.522752,458.555626 451.04365,458.829517 446.500577,458.829517 C385.411981,458.829517 335.88989,409.307425 335.88989,348.21883 C335.88989,348.02363 335.890395,347.828549 335.891405,347.633588 L361.642502,347.633588 C361.641185,347.828513 361.640526,348.023594 361.640526,348.21883 C361.640526,395.085741 399.633665,433.07888 446.500577,433.07888 C451.067726,433.07888 455.550607,432.718084 459.922273,432.023437 L459.922273,458.023454 L459.922273,458.023454 Z M110.610687,434.249364 C157.477599,434.249364 195.470738,396.256225 195.470738,349.389313 C195.470738,302.522401 157.477599,264.529262 110.610687,264.529262 C63.743775,264.529262 25.7506361,302.522401 25.7506361,349.389313 C25.7506361,396.256225 63.743775,434.249364 110.610687,434.249364 L110.610687,434.249364 Z" fill="#FFFFFF"></path>
    </g>
</svg>

<svg width="460" height="460" viewBox="0 0 460 460" xmlns="http://www.w3.org/2000/svg"><g fill="none" fill-rule="evenodd"><path fill="#033671" d="M0 238.78h460V460H0z"/><path fill="#F8E81C" d="M0 0h460v238.78H0z"/><path d="M195.47 420.34V460h25.75l.003-111.196-.002-.585c0-46.68 37.68-84.55 84.28-84.86v-25.75c-33.85.17-64.1 15.55-84.27 39.65v-38.49h-25.75v39.66c-20.29-24.24-50.774-39.66-84.86-39.66C49.528 238.78 0 288.3 0 349.39 0 410.48 49.522 460 110.61 460c34.086 0 64.57-15.418 84.86-39.66zm140.42-156.98v84.274h25.75V263.36H460v-25.752h-98.36v-59.695h-25.75v59.695h-30.394v25.75h30.394zm124.032 194.663c-4.4.533-8.878.807-13.42.807-61.09 0-110.612-49.523-110.612-110.61v-.586h25.753c-.002.195-.002.39-.002.585 0 46.86 38 84.86 84.86 84.86 4.57 0 9.05-.37 13.43-1.06v26zm-349.31-23.774c46.866 0 84.86-38 84.86-84.86 0-46.87-37.994-84.86-84.86-84.86-46.868 0-84.86 37.99-84.86 84.86 0 46.86 37.992 84.86 84.86 84.86z" fill="#FFF"/></g></svg>
